packages/sources/icons/src/vitamix/viber-fill.svg

<svg width="16" height="16" viewBox="0 0 16 16" xmlns="http://www.w3.org/2000/svg"><path d="M3.33428 1.8396C4.60452 0.967413 6.29769 0.779999 8.00003 0.779999C9.70237 0.779999 11.3955 0.967413 12.6658 1.8396C13.9911 2.74964 14.72 4.30084 14.72 6.68756C14.72 9.07428 13.9911 10.6255 12.6658 11.5355C11.3955 12.4077 9.70237 12.5951 8.00003 12.5951H7.0816L5.65637 14.0204L5.62927 14.042L5.62136 14.0487C5.61605 14.0532 5.60925 14.059 5.60086 14.0664C5.58401 14.0812 5.56329 14.0997 5.53952 14.1212C5.49201 14.1642 5.43652 14.2155 5.38286 14.2654C5.32942 14.3151 5.27893 14.3625 5.24173 14.3975L5.19744 14.4392L4.12355 15.4565V11.9859C3.3429 11.6371 2.66166 11.1129 2.16098 10.3312C1.57899 9.42258 1.28003 8.22698 1.28003 6.68756C1.28003 4.30084 2.00893 2.74964 3.33428 1.8396ZM7.44875 5.55017C7.44875 5.74246 7.60464 5.89835 7.79694 5.89835C8.13272 5.89835 8.38305 6.14868 8.38305 6.48447C8.38305 6.67676 8.53894 6.83265 8.73124 6.83265C8.92354 6.83265 9.07943 6.67676 9.07943 6.48447C9.07943 5.76408 8.51732 5.20198 7.79694 5.20198C7.60464 5.20198 7.44875 5.35787 7.44875 5.55017ZM7.79694 2.68342C7.60464 2.68342 7.44875 2.8393 7.44875 3.0316C7.44875 3.2239 7.60464 3.37979 7.79694 3.37979C9.51386 3.37979 10.9016 4.76753 10.9016 6.48445C10.9016 6.67675 11.0575 6.83264 11.2498 6.83264C11.4421 6.83264 11.598 6.67675 11.598 6.48445C11.598 4.38293 9.89846 2.68342 7.79694 2.68342ZM7.44875 4.29087C7.44875 4.48317 7.60464 4.63906 7.79694 4.63906C8.82329 4.63906 9.64233 5.45809 9.64233 6.48445C9.64233 6.67675 9.79822 6.83263 9.99051 6.83263C10.1828 6.83263 10.3387 6.67675 10.3387 6.48445C10.3387 5.0735 9.20789 3.94269 7.79694 3.94269C7.60464 3.94269 7.44875 4.09857 7.44875 4.29087ZM10.3968 8.4343C10.3697 8.38014 10.3245 8.36208 10.2493 8.33199C10.2117 8.31695 10.1666 8.29889 10.1124 8.27181C9.94989 8.19056 9.21872 7.82497 9.09686 7.78435C8.975 7.74373 8.81251 7.74373 8.73126 7.90622C8.66456 7.9896 8.6047 8.07299 8.54887 8.15075C8.46872 8.2624 8.39688 8.36247 8.32505 8.4343C8.2438 8.51554 8.08132 8.55616 7.95945 8.47492C7.93141 8.4609 7.89369 8.44446 7.84754 8.42435C7.62629 8.32791 7.21136 8.14706 6.7408 7.74373C6.38719 7.42226 6.13533 7.04992 5.98524 6.82801C5.94567 6.76951 5.91317 6.72146 5.88774 6.68756C5.8065 6.52508 5.88774 6.44383 5.96899 6.36259L6.21272 6.11886C6.29396 6.03762 6.33458 5.99699 6.3752 5.87513C6.41582 5.79389 6.3752 5.67202 6.33458 5.59078C6.31427 5.55016 6.23303 5.34705 6.14163 5.11856C6.05023 4.89006 5.94868 4.63617 5.88774 4.49399C5.8065 4.29088 5.72526 4.29088 5.56277 4.29088C5.52215 4.25026 5.4409 4.25026 5.40028 4.25026C5.19717 4.25026 4.99406 4.29088 4.8722 4.45337C4.70971 4.61585 4.34412 4.98145 4.34412 5.71264C4.34412 6.44383 4.8722 7.17502 4.95344 7.25627C4.96381 7.26663 4.98872 7.3008 5.02742 7.35388C5.29205 7.71685 6.20137 8.96406 7.51261 9.53109C8.69064 10.0185 9.05624 9.97793 9.29997 9.9373C9.70619 9.81544 10.1936 9.53109 10.3155 9.16549C10.4374 8.7999 10.4374 8.51554 10.3968 8.4343Z"/></svg>

<svg width="16" height="16" xmlns="http://www.w3.org/2000/svg"><path d="M3.334 1.84C4.604.967 6.298.78 8 .78c1.702 0 3.396.187 4.666 1.06 1.325.91 2.054 2.46 2.054 4.848 0 2.386-.729 3.938-2.054 4.848-1.27.872-2.964 1.06-4.666 1.06h-.918L5.656 14.02l-.027.022-.008.007a1.324 1.324 0 0 0-.081.072 16.558 16.558 0 0 0-.298.277l-.045.041-1.073 1.018v-3.471c-.781-.349-1.462-.873-1.963-1.655-.582-.908-.881-2.104-.881-3.643 0-2.387.729-3.938 2.054-4.848ZM7.45 5.55c0 .192.156.348.348.348.336 0 .586.25.586.586a.348.348 0 0 0 .696 0c0-.72-.562-1.282-1.282-1.282a.348.348 0 0 0-.348.348Zm.348-2.867a.348.348 0 1 0 0 .697 3.102 3.102 0 0 1 3.105 3.104.348.348 0 0 0 .696 0c0-2.101-1.7-3.8-3.801-3.8Zm-.348 1.608c0 .192.156.348.348.348 1.026 0 1.845.82 1.845 1.845a.348.348 0 1 0 .697 0c0-1.41-1.131-2.541-2.542-2.541a.348.348 0 0 0-.348.348Zm2.948 4.143c-.027-.054-.072-.072-.148-.102a1.7 1.7 0 0 1-.137-.06c-.162-.081-.893-.447-1.015-.488-.122-.04-.284-.04-.366.122-.066.084-.126.167-.182.245-.08.111-.152.211-.224.283-.081.082-.244.122-.366.04a2.6 2.6 0 0 0-.111-.05c-.222-.096-.637-.277-1.107-.68-.354-.322-.606-.694-.756-.916-.04-.058-.072-.107-.097-.14-.082-.163 0-.244.081-.325l.244-.244a.518.518 0 0 0 .162-.244c.04-.081 0-.203-.04-.284-.02-.04-.102-.244-.193-.472-.092-.229-.193-.483-.254-.625-.082-.203-.163-.203-.325-.203-.04-.04-.122-.04-.163-.04-.203 0-.406.04-.528.202a1.651 1.651 0 0 0-.528 1.26c0 .73.528 1.462.61 1.543.01.01.035.045.073.098.265.363 1.174 1.61 2.486 2.177 1.178.487 1.543.447 1.787.406.406-.122.894-.406 1.015-.772.122-.365.122-.65.082-.73Z"/></svg>
